Costumes/Human_09-upperarm_R.svg

<?xml version="1.0" encoding="UTF-8"?>
<svg id="Layer_2" data-name="Layer 2" xmlns="http://www.w3.org/2000/svg" viewBox="0 0 43.2 96.57">
  <defs>
    <style>
      .cls-1 {
        fill: #06006b;
      }

      .cls-2 {
        fill: #0d0a43;
      }
    </style>
  </defs>
  <g id="Layer_1-2" data-name="Layer 1">
    <path d="M18.5.32c18.15-2.89,20.21,14.67,19.65,28.27-.67,16.03-2.05,25.72.9,42.21.84,4.67,4.32,14.32,4.15,18.19-.2,4.47-4.35,6.99-8.38,7.5-3.24.4-5.56-.66-8.54-.69-6.94-.07-13.82.24-20.73.58-9.11-1.62-4.31-16.05-4.09-22.46s.17-13.21,0-19.49C.97,37.24-6.55,4.31,18.5.32Z"/>
    <path class="cls-1" d="M25.88,6.62c4.6,2.81,5.24,8.32,4.75,13.25-3.44,21.55-.79,42.85,4.2,64.16.79,2.81.44,5.07-1.04,6.77-6.59.49-13.83-.22-20.53-.03-2.05.06-4.01,1.04-6.09.75-.73-2.15-.54-4.69.59-7.62.55-14.61.15-29.24-1.19-43.89-.22-12.93.41-23.72,9.24-33.38,2.99-1.26,4.61-2.07,8.17-1.29,1.12.24,1.48,1.1,1.91,1.29Z"/>
    <path class="cls-2" d="M15.81,6.62c-.12,4.39-4.19,7.57-5.57,11.34-5.26,14.4.5,47.08-.88,64.59-.25,3.14-1.13,6.04-2.18,8.97-.65-.09-1.41,0-1.82-.67-1.39-2.26.99-13.48,1.13-16.92.24-5.75.16-12.27,0-18.05C6.08,41.26-1.17,13.76,15.81,6.62Z"/>
    <path class="cls-2" d="M33.8,90.79c.11-12.02-4.85-24.6-5.75-36.34-.54-7.1-.29-16.54-.04-23.76.29-8.16,3.83-16.61-2.13-24.07,2.83,1.26,4.14,1.62,5.4,5.03,3.03,8.22.53,18.06.32,26.23-.31,12.14.25,23.14,2.4,35.07.57,3.14,5.02,15.79,2.69,17.53-.74.55-2.03.25-2.91.31Z"/>
  </g>
</svg>

<?xml version="1.0" encoding="UTF-8" standalone="no"?>
<svg
   id="Layer_2"
   data-name="Layer 2"
   viewBox="0 0 43.204715 96.5756"
   version="1.1"
   sodipodi:docname="Human_09-upperarm_R.svg"
   width="43.204716"
   height="96.5756"
   xmlns:inkscape="http://www.inkscape.org/namespaces/inkscape"
   xmlns:sodipodi="http://sodipodi.sourceforge.net/DTD/sodipodi-0.dtd"
   xmlns="http://www.w3.org/2000/svg"
   xmlns:svg="http://www.w3.org/2000/svg">
  <sodipodi:namedview
     id="namedview16"
     pagecolor="#ffffff"
     bordercolor="#000000"
     borderopacity="0.25"
     inkscape:showpageshadow="2"
     inkscape:pageopacity="0.0"
     inkscape:pagecheckerboard="0"
     inkscape:deskcolor="#d1d1d1" />
  <defs
     id="defs4">
    <style
       id="style2">
      .cls-1 {
        fill: #06006b;
      }

      .cls-2 {
        fill: #0d0a43;
      }
    </style>
  </defs>
  <g
     id="Layer_1-2"
     data-name="Layer 1"
     transform="translate(-0.0013053,-0.00448074)">
    <path
       d="m 18.5,0.32 c 18.15,-2.89 20.21,14.67 19.65,28.27 -0.67,16.03 -2.05,25.72 0.9,42.21 0.84,4.67 4.32,14.32 4.15,18.19 -0.2,4.47 -4.35,6.99 -8.38,7.5 -3.24,0.4 -5.56,-0.66 -8.54,-0.69 C 19.34,95.73 12.46,96.04 5.55,96.38 -3.56,94.76 1.24,80.33 1.46,73.92 1.68,67.51 1.63,60.71 1.46,54.43 0.97,37.24 -6.55,4.31 18.5,0.32 Z"
       id="path6" />
    <path
       class="cls-1"
       d="m 25.88,6.62 c 4.6,2.81 5.24,8.32 4.75,13.25 -3.44,21.55 -0.79,42.85 4.2,64.16 0.79,2.81 0.44,5.07 -1.04,6.77 C 27.2,91.29 19.96,90.58 13.26,90.77 11.21,90.83 9.25,91.81 7.17,91.52 6.44,89.37 6.63,86.83 7.76,83.9 8.31,69.29 7.91,54.66 6.57,40.01 6.35,27.08 6.98,16.29 15.81,6.63 18.8,5.37 20.42,4.56 23.98,5.34 c 1.12,0.24 1.48,1.1 1.91,1.29 z"
       id="path8" />
    <path
       class="cls-2"
       d="m 15.81,6.62 c -0.12,4.39 -4.19,7.57 -5.57,11.34 -5.26,14.4 0.5,47.08 -0.88,64.59 -0.25,3.14 -1.13,6.04 -2.18,8.97 -0.65,-0.09 -1.41,0 -1.82,-0.67 C 3.97,88.59 6.35,77.37 6.49,73.93 6.73,68.18 6.65,61.66 6.49,55.88 6.08,41.26 -1.17,13.76 15.81,6.62 Z"
       id="path10" />
    <path
       class="cls-2"
       d="M 33.8,90.79 C 33.91,78.77 28.95,66.19 28.05,54.45 27.51,47.35 27.76,37.91 28.01,30.69 28.3,22.53 31.84,14.08 25.88,6.62 c 2.83,1.26 4.14,1.62 5.4,5.03 3.03,8.22 0.53,18.06 0.32,26.23 -0.31,12.14 0.25,23.14 2.4,35.07 0.57,3.14 5.02,15.79 2.69,17.53 -0.74,0.55 -2.03,0.25 -2.91,0.31 z"
       id="path12" />
  </g>
</svg>
